X: 2
M:3/4
L:1/8
K:Bb
"Andante"G>F|D2 G2 A>^F|G4 GA|B2 d2 cB|c4 c2|
d2 g2 gf|d2 f2 d<c|B2 A2 G2|F4 G>A|

